picto/train-right-framed.svg

<svg class="color-immutable" width="30" height="30" viewBox="0 0 30 30" fill="none" xmlns="http://www.w3.org/2000/svg"><path d="M0 0H30V30H0V0Z" fill="#2D327D"/><path d="M25.5 3C26.325 3 27 3.675 27 4.5V25.5C27 26.3251 26.325 27.0001 25.5 27.0001H4.5C3.675 27.0001 3 26.3251 3 25.5V4.5C3 3.675 3.675 3 4.5 3H25.5ZM25.5 2.625H4.5C3.46613 2.625 2.625 3.46613 2.625 4.5V25.5C2.625 26.5339 3.46613 27.375 4.5 27.375H25.5C26.5339 27.375 27.375 26.5339 27.375 25.5V4.5C27.375 3.46613 26.5339 2.625 25.5 2.625Z" fill="white"/><path d="M23.7114 21.8624C23.9185 21.8624 24.0864 21.6943 24.0864 21.4875C24.0864 21.4696 24.0851 21.4519 24.0826 21.4344L23.7633 19.1987H19.8741V21.8625H23.7114V21.8624Z" fill="white"/><path d="M14.6335 11.1935L5.99915 11.1936V10.4999H13.0491L10.8365 8.99985L14.9991 6.63728L19.1367 8.99985H19.1616L16.949 10.4999H21.5447C22.1046 10.4999 22.5792 10.9115 22.6585 11.4658L23.6616 18.4874H5.99915V14.775H14.6335C14.8353 14.775 14.9991 14.6111 14.9991 14.4094C14.9991 14.2075 14.8353 14.0436 14.6335 14.0436H5.99915V13.3499H14.6335C14.8353 13.3499 14.9991 13.1861 14.9991 12.9842C14.9991 12.7824 14.8353 12.6186 14.6335 12.6186H5.99915V11.9249H14.6335C14.8353 11.9249 14.9991 11.7612 14.9991 11.5592C14.9991 11.3575 14.8353 11.1935 14.6335 11.1935ZM19.6491 14.3999C19.6491 14.6069 19.8172 14.775 20.0241 14.775H21.9792C22.1863 14.775 22.3543 14.6069 22.3543 14.3999C22.3543 14.3821 22.353 14.3644 22.3506 14.3468L21.946 11.5156C21.9197 11.331 21.7614 11.1936 21.5748 11.1936H20.0241C19.8172 11.1936 19.6491 11.3617 19.6491 11.5685V14.3999ZM15.6795 10.4999L17.8041 9.0594L14.9981 7.45733L12.1854 9.05363L14.3188 10.4999H15.6795V10.4999Z" fill="white"/><path d="M10.7906 21.0207C10.7906 19.9651 11.6475 19.1083 12.7032 19.1083C13.7587 19.1083 14.6155 19.9651 14.6155 21.0207C14.6155 22.0766 13.7587 22.9333 12.7032 22.9333C11.6475 22.9333 10.7906 22.0766 10.7906 21.0207Z" fill="white"/><path d="M15.2994 21.0207C15.2994 19.9651 16.1562 19.1083 17.212 19.1083C18.2676 19.1083 19.1244 19.9651 19.1244 21.0207C19.1244 22.0766 18.2676 22.9333 17.212 22.9333C16.1562 22.9333 15.2994 22.0766 15.2994 21.0207Z" fill="white"/><path d="M24 6V6.375H6V6H24Z" fill="white"/><path d="M6 24V23.2875H24V24H6Z" fill="white"/><path d="M6 19.3126V19.2H10.125V21.8625H6V19.3126Z" fill="white"/></svg>

<svg class="color-immutable" width="30" height="30" viewBox="0 0 30 30" fill="none" xmlns="http://www.w3.org/2000/svg"><g clip-path="url(#a)"><path d="M0 0h30v30H0V0Z" fill="#2D327D"/><path d="M25.5 3c.825 0 1.5.675 1.5 1.5v21c0 .825-.675 1.5-1.5 1.5h-21c-.825 0-1.5-.675-1.5-1.5v-21C3 3.675 3.675 3 4.5 3h21Zm0-.375h-21A1.877 1.877 0 0 0 2.625 4.5v21c0 1.034.841 1.875 1.875 1.875h21a1.877 1.877 0 0 0 1.875-1.875v-21A1.877 1.877 0 0 0 25.5 2.625Z" fill="#fff"/><path d="M23.711 21.862a.375.375 0 0 0 .372-.428l-.32-2.235h-3.889v2.663h3.837ZM14.633 11.194H6V10.5h7.05L10.836 9 15 6.637 19.137 9h.025l-2.213 1.5h4.596c.56 0 1.034.412 1.113.966l1.004 7.021H5.999v-3.712h8.634a.366.366 0 0 0 0-.731H6v-.694h8.634a.366.366 0 0 0 0-.731H6v-.694h8.634a.366.366 0 0 0 0-.732ZM19.65 14.4c0 .207.168.375.375.375h1.955a.375.375 0 0 0 .372-.428l-.405-2.831a.375.375 0 0 0-.371-.322h-1.55a.375.375 0 0 0-.376.374V14.4Zm-3.97-3.9 2.125-1.44-2.806-1.603-2.813 1.597L14.32 10.5h1.36ZM10.79 21.02a1.913 1.913 0 1 1 3.827.002 1.913 1.913 0 0 1-3.826-.001ZM15.3 21.02a1.913 1.913 0 1 1 3.826.002 1.913 1.913 0 0 1-3.827-.001ZM24 6v.375H6V6h18ZM6 24v-.712h18V24H6ZM6 19.313V19.2h4.125v2.663H6v-2.55Z" fill="#fff"/></g><defs><clipPath id="a"><path fill="#fff" d="M0 0h30v30H0z"/></clipPath></defs></svg>
